svg/filled/password.svg

<svg width="24" height="24" viewBox="0 0 24 24" fill="none" xmlns="http://www.w3.org/2000/svg">
<path fill-rule="evenodd" clip-rule="evenodd" d="M3.90913 8C3.40705 8 3.00004 8.40701 3.00004 8.90909V15.0909C3.00004 15.593 3.40705 16 3.90913 16H20.0909C20.593 16 21 15.593 21 15.0909V8.90909C21 8.40701 20.593 8 20.0909 8H3.90913ZM7.00004 13.5C7.82847 13.5 8.50004 12.8284 8.50004 12C8.50004 11.1716 7.82847 10.5 7.00004 10.5C6.17161 10.5 5.50004 11.1716 5.50004 12C5.50004 12.8284 6.17161 13.5 7.00004 13.5ZM13.5 12C13.5 12.8284 12.8285 13.5 12 13.5C11.1716 13.5 10.5 12.8284 10.5 12C10.5 11.1716 11.1716 10.5 12 10.5C12.8285 10.5 13.5 11.1716 13.5 12ZM17 13.5C17.8285 13.5 18.5 12.8284 18.5 12C18.5 11.1716 17.8285 10.5 17 10.5C16.1716 10.5 15.5 11.1716 15.5 12C15.5 12.8284 16.1716 13.5 17 13.5Z" fill="black"/>
</svg>

<svg xmlns="http://www.w3.org/2000/svg" viewBox="0 0 24 24" fill="currentColor">
  <path fill-rule="evenodd" d="M3.91 8a.91.91 0 00-.91.91v6.18c0 .503.407.91.91.91h16.18a.91.91 0 00.91-.91V8.91a.91.91 0 00-.91-.91H3.91zM7 13.5a1.5 1.5 0 100-3 1.5 1.5 0 000 3zm6.5-1.5a1.5 1.5 0 11-3 0 1.5 1.5 0 013 0zm3.5 1.5a1.5 1.5 0 100-3 1.5 1.5 0 000 3z" clip-rule="evenodd"/>
</svg>
